symbolia-neutral/scalable/actions/playlist-queue.svg

<?xml version="1.0" encoding="UTF-8" standalone="no"?>
<svg
   xmlns:dc="http://purl.org/dc/elements/1.1/"
   xmlns:cc="http://creativecommons.org/ns#"
   xmlns:rdf="http://www.w3.org/1999/02/22-rdf-syntax-ns#"
   xmlns:svg="http://www.w3.org/2000/svg"
   xmlns="http://www.w3.org/2000/svg"
   xmlns:sodipodi="http://sodipodi.sourceforge.net/DTD/sodipodi-0.dtd"
   xmlns:inkscape="http://www.inkscape.org/namespaces/inkscape"
   version="1.1"
   id="mdi-music-box-multiple"
   width="24"
   height="24"
   viewBox="0 0 24 24"
   sodipodi:docname="playlist-automatic.svg"
   inkscape:version="1.0.2 (e86c870879, 2021-01-15)">
  <metadata
     id="metadata9">
    <rdf:RDF>
      <cc:Work
         rdf:about="">
        <dc:format>image/svg+xml</dc:format>
        <dc:type
           rdf:resource="http://purl.org/dc/dcmitype/StillImage" />
      </cc:Work>
    </rdf:RDF>
  </metadata>
  <defs
     id="defs7" />
  <sodipodi:namedview
     pagecolor="#ffffff"
     bordercolor="#666666"
     borderopacity="1"
     objecttolerance="10"
     gridtolerance="10"
     guidetolerance="10"
     inkscape:pageopacity="0"
     inkscape:pageshadow="2"
     inkscape:window-width="1844"
     inkscape:window-height="1031"
     id="namedview5"
     showgrid="false"
     inkscape:zoom="42"
     inkscape:cx="12"
     inkscape:cy="11.047619"
     inkscape:window-x="8"
     inkscape:window-y="1109"
     inkscape:window-maximized="0"
     inkscape:current-layer="mdi-music-box-multiple" />
  <path fill="#afafaf"
     d="M 4,18 H 2 V 4 C 2,2.8954305 2.906532,1.8437903 4,2 H 18 V 4 H 4 m 14,7 h -3 v 5.5 C 15,17.880712 13.880712,19 12.5,19 11.119288,19 10,17.880712 10,16.5 10,15.119288 11.119288,14 12.5,14 c 0.57,0 1.08,0.19 1.5,0.5 V 9 h 4 M 20,6 H 8 C 6.8954305,6 6,6.8954305 6,8 v 12 c 0,1.104569 0.8954305,2 2,2 h 12 c 1.104569,0 2,-0.895431 2,-2 V 8 C 22,6.8954305 21.104569,6 20,6 Z"
     id="path2"
     sodipodi:nodetypes="ccsscccccsssscccsssssssss" />
</svg>

<?xml version="1.0" encoding="UTF-8" standalone="no"?>
<svg
   xmlns:dc="http://purl.org/dc/elements/1.1/"
   xmlns:cc="http://creativecommons.org/ns#"
   xmlns:rdf="http://www.w3.org/1999/02/22-rdf-syntax-ns#"
   xmlns:svg="http://www.w3.org/2000/svg"
   xmlns="http://www.w3.org/2000/svg"
   xmlns:sodipodi="http://sodipodi.sourceforge.net/DTD/sodipodi-0.dtd"
   xmlns:inkscape="http://www.inkscape.org/namespaces/inkscape"
   version="1.1"
   id="mdi-music-box-multiple"
   width="24"
   height="24"
   viewBox="0 0 24 24"
   sodipodi:docname="playlist-queue.svg"
   inkscape:version="1.0.2 (e86c870879, 2021-01-15)">
  <metadata
     id="metadata9">
    <rdf:RDF>
      <cc:Work
         rdf:about="">
        <dc:format>image/svg+xml</dc:format>
        <dc:type
           rdf:resource="http://purl.org/dc/dcmitype/StillImage" />
      </cc:Work>
    </rdf:RDF>
  </metadata>
  <defs
     id="defs7" />
  <sodipodi:namedview
     pagecolor="#ffffff"
     bordercolor="#666666"
     borderopacity="1"
     objecttolerance="10"
     gridtolerance="10"
     guidetolerance="10"
     inkscape:pageopacity="0"
     inkscape:pageshadow="2"
     inkscape:window-width="3824"
     inkscape:window-height="2080"
     id="namedview5"
     showgrid="false"
     inkscape:zoom="42"
     inkscape:cx="12"
     inkscape:cy="12"
     inkscape:window-x="3848"
     inkscape:window-y="35"
     inkscape:window-maximized="0"
     inkscape:current-layer="mdi-music-box-multiple"
     inkscape:document-rotation="0" />
  <path fill="#afafaf"
     id="path2"
     d="M 4 2 C 2.9 2 2 2.9 2 4 L 2 17 C 2 17.55 2.45 18 3 18 C 3.55 18 4 17.55 4 17 L 4 5 C 4 4.45 4.45 4 5 4 L 17 4 C 17.55 4 18 3.55 18 3 C 18 2.45 17.55 2 17 2 L 4 2 z M 8 6 C 6.895431 6 6 6.895431 6 8 L 6 20 C 6 21.104569 6.895431 22 8 22 L 20 22 C 21.104569 22 22 21.104569 22 20 L 22 8 C 22 6.895431 21.104569 6 20 6 L 8 6 z M 14 9 L 18 9 L 18 11 L 15 11 L 15 16.5 C 15 17.880712 13.880712 19 12.5 19 C 11.119288 19 10 17.880712 10 16.5 C 10 15.119288 11.119288 14 12.5 14 C 13.07 14 13.58 14.19 14 14.5 L 14 9 z " />
</svg>
